Hatter/scalable/apps/gap.svg

<?xml version="1.0" encoding="UTF-8" standalone="no"?>
<svg
   width="64"
   height="64"
   version="1.1"
   viewBox="0 0 16.933 16.933"
   id="svg49"
   sodipodi:docname="gap.svg"
   inkscape:version="1.2.1 (9c6d41e410, 2022-07-14)"
   xmlns:inkscape="http://www.inkscape.org/namespaces/inkscape"
   xmlns:sodipodi="http://sodipodi.sourceforge.net/DTD/sodipodi-0.dtd"
   xmlns:xlink="http://www.w3.org/1999/xlink"
   xmlns="http://www.w3.org/2000/svg"
   xmlns:svg="http://www.w3.org/2000/svg"
   xmlns:rdf="http://www.w3.org/1999/02/22-rdf-syntax-ns#"
   xmlns:cc="http://creativecommons.org/ns#"
   xmlns:dc="http://purl.org/dc/elements/1.1/">
  <sodipodi:namedview
     id="namedview51"
     pagecolor="#ffffff"
     bordercolor="#666666"
     borderopacity="1.0"
     inkscape:pageshadow="2"
     inkscape:pageopacity="0.0"
     inkscape:pagecheckerboard="0"
     showgrid="false"
     showguides="false"
     inkscape:zoom="8.0000004"
     inkscape:cx="25.812499"
     inkscape:cy="24.937499"
     inkscape:window-width="1920"
     inkscape:window-height="1005"
     inkscape:window-x="0"
     inkscape:window-y="0"
     inkscape:window-maximized="1"
     inkscape:current-layer="svg49"
     inkscape:showpageshadow="0"
     inkscape:deskcolor="#d1d1d1" />
  <metadata
     id="metadata2">
    <rdf:RDF>
      <cc:Work
         rdf:about="">
        <dc:format>image/svg+xml</dc:format>
        <dc:type
           rdf:resource="http://purl.org/dc/dcmitype/StillImage" />
      </cc:Work>
    </rdf:RDF>
  </metadata>
  <defs
     id="defs19">
    <linearGradient
       inkscape:collect="always"
       id="linearGradient981">
      <stop
         style="stop-color:#171c54;stop-opacity:1"
         offset="0"
         id="stop977" />
      <stop
         style="stop-color:#2e3585;stop-opacity:1"
         offset="1"
         id="stop979" />
    </linearGradient>
    <rect
       x="3.0021994"
       y="6.5392229"
       width="61.081012"
       height="50.550587"
       id="rect5309" />
    <linearGradient
       id="linearGradient64681">
      <stop
         stop-color="#99c2e6"
         offset="0"
         id="stop4" />
      <stop
         stop-color="#6493bd"
         offset="1"
         id="stop6" />
    </linearGradient>
    <filter
       id="filter1057"
       x="-0.026999999"
       y="-0.026999999"
       width="1.054"
       height="1.054"
       color-interpolation-filters="sRGB">
      <feGaussianBlur
         stdDeviation="0.61875"
         id="feGaussianBlur9" />
    </filter>
    <linearGradient
       id="linearGradient1053"
       x1="-127"
       x2="-127"
       y1="60"
       y2="5"
       gradientTransform="matrix(0.26458,0,0,0.26458,34.792,-0.13493)"
       gradientUnits="userSpaceOnUse">
      <stop
         stop-color="#32d7ff"
         offset="0"
         id="stop12" />
      <stop
         stop-color="#329bff"
         offset="1"
         id="stop14" />
    </linearGradient>
    <linearGradient
       id="linearGradient1050"
       x1="31.803"
       x2="31.803"
       y1="8.0244"
       y2="8.241"
       gradientTransform="matrix(.82927 0 0 .8636 -17.745 1.0542)"
       gradientUnits="userSpaceOnUse"
       xlink:href="#linearGradient64681" />
    <linearGradient
       id="linearGradient1052"
       x1="31.803"
       x2="31.803"
       y1="8.0244"
       y2="8.241"
       gradientTransform="matrix(.8636 0 0 .8636 -18.831 .94954)"
       gradientUnits="userSpaceOnUse"
       xlink:href="#linearGradient64681" />
    <linearGradient
       inkscape:collect="always"
       xlink:href="#linearGradient981"
       id="linearGradient983"
       x1="4.3594747"
       y1="4.2999015"
       x2="12.02583"
       y2="11.966257"
       gradientUnits="userSpaceOnUse" />
  </defs>
  <rect
     transform="scale(0.26458)"
     x="4.5"
     y="4.5"
     width="55"
     height="55"
     ry="15"
     fill="#141414"
     filter="url(#filter1057)"
     opacity="0.3"
     stroke-width="2.7444"
     id="rect21"
     style="stroke-linecap:round" />
  <rect
     x="1.1906"
     y="1.1906"
     width="14.552"
     height="14.552"
     ry="3.9686999"
     stroke-width="0.72611"
     id="rect23"
     style="fill:url(#linearGradient983);stroke-linecap:round;fill-opacity:1" />
  <g
     aria-label="GAP "
     id="text31974"
     style="font-size:10.5831px;fill:#d4da46;stroke-width:0.264578"
     transform="matrix(1.2382757,0,0,1.2382757,-1.2868519,-2.434348)">
    <path
       d="m 5.3058799,7.2320549 h 1.0748485 v 1.6122727 q -0.501596,0.1612272 -1.0927626,0.1612272 -0.6628232,0 -1.0569343,-0.4299393 -0.3941111,-0.4299394 -0.3941111,-1.2539899 0,-0.7882222 0.4120252,-1.2181615 0.4299394,-0.4478535 1.1823333,-0.4478535 0.501596,0 0.8957071,0.1791414 L 6.1657587,6.2109489 Q 5.7716476,6.0138934 5.3954506,6.0138934 q -0.51951,0 -0.8240504,0.3403686 -0.3045404,0.3403687 -0.3045404,0.9852778 0,0.644909 0.2687121,0.9852777 0.2866262,0.3224545 0.8598787,0.3224545 0.2687122,0 0.5732525,-0.071656 V 7.6082519 H 5.3058799 Z"
       style="-inkscape-font-specification:'TeX Gyre Bonum Math, Normal'"
       id="path2624" />
    <path
       d="M 9.0857636,8.9697266 8.7274807,7.9486205 H 7.5093192 L 7.1510364,8.9697266 H 6.721097 L 7.9213444,5.6735247 h 0.376197 L 9.5157029,8.9697266 Z M 8.6020818,7.5903377 8.2617131,6.6408883 Q 8.1542282,6.3363479 8.1184,6.1213782 8.0646575,6.3721762 7.9571727,6.6408883 L 7.6347182,7.5903377 Z"
       style="-inkscape-font-specification:'TeX Gyre Bonum Math, Normal'"
       id="path2626" />
    <path
       d="m 10.375582,7.6978226 v 1.271904 H 9.9635565 V 5.6914388 h 0.8061365 q 0.573252,0 0.859879,0.250798 0.286626,0.2328838 0.286626,0.7165656 0,0.4836818 -0.304541,0.7703081 -0.30454,0.2687121 -0.895707,0.2687121 z m 0,-0.3582828 h 0.286626 q 0.447853,0 0.626995,-0.1612273 0.197055,-0.1612273 0.197055,-0.5015959 0,-0.3045404 -0.197055,-0.4657677 -0.179142,-0.1612273 -0.555338,-0.1612273 h -0.358283 z"
       style="-inkscape-font-specification:'TeX Gyre Bonum Math, Normal'"
       id="path2628" />
  </g>
  <g
     aria-label="4"
     id="text31974-2"
     style="font-size:10.5831px;fill:#d4da46;stroke-width:0.264578"
     transform="matrix(1.2382757,0,0,1.2382757,-1.7844432,-2.8688235)">
    <path
       d="M 9.4696917,12.831001 H 8.9860099 v 0.73448 H 8.5918988 v -0.73448 H 7.087111 v -0.358283 l 1.4868737,-2.203439 h 0.4120252 v 2.185525 H 9.4696917 Z M 8.5918988,12.454804 v -0.788222 q 0,-0.394111 0.035828,-0.967364 H 8.609813 q -0.089571,0.232884 -0.1970556,0.394112 l -0.9315353,1.361474 z"
       style="-inkscape-font-specification:'TeX Gyre Bonum Math, Normal'"
       id="path2637" />
  </g>
  <g
     id="g2622"
     transform="matrix(1.2382757,0,0,1.2382757,17.412713,-2.8688234)">
    <text
       xml:space="preserve"
       style="font-style:normal;font-weight:normal;font-size:10.5831px;line-height:1.25;font-family:sans-serif;fill:#d4da46;fill-opacity:1;stroke:none;stroke-width:0.264578"
       x="3.5502942"
       y="8.9697266"
       id="text2616"><tspan
         sodipodi:role="line"
         style="font-style:normal;font-variant:normal;font-weight:normal;font-stretch:normal;font-size:4.58602px;font-family:'TeX Gyre Bonum Math';-inkscape-font-specification:'TeX Gyre Bonum Math, Normal';font-variant-ligatures:normal;font-variant-caps:normal;font-variant-numeric:normal;font-variant-east-asian:normal;fill:#d4da46;fill-opacity:1;stroke-width:0.264578"
         x="3.5502942"
         y="8.9697266"
         id="tspan2614">GAP </tspan></text>
    <text
       xml:space="preserve"
       style="font-style:normal;font-weight:normal;font-size:10.5831px;line-height:1.25;font-family:sans-serif;fill:#d4da46;fill-opacity:1;stroke:none;stroke-width:0.264578"
       x="7.0333686"
       y="12.652628"
       id="text2620"><tspan
         sodipodi:role="line"
         style="font-style:normal;font-variant:normal;font-weight:normal;font-stretch:normal;font-size:4.58602px;font-family:'TeX Gyre Bonum Math';-inkscape-font-specification:'TeX Gyre Bonum Math, Normal';font-variant-ligatures:normal;font-variant-caps:normal;font-variant-numeric:normal;font-variant-east-asian:normal;fill:#d4da46;fill-opacity:1;stroke-width:0.264578"
         x="7.0333686"
         y="12.652628"
         id="tspan2618">4</tspan></text>
  </g>
</svg>

<?xml version="1.0" encoding="UTF-8"?>
<svg id="svg49" width="64" height="64" version="1.1" viewBox="0 0 16.933 16.933" xmlns="http://www.w3.org/2000/svg" xmlns:cc="http://creativecommons.org/ns#" xmlns:dc="http://purl.org/dc/elements/1.1/" xmlns:rdf="http://www.w3.org/1999/02/22-rdf-syntax-ns#" xmlns:xlink="http://www.w3.org/1999/xlink">
 <metadata id="metadata2">
  <rdf:RDF>
   <cc:Work rdf:about="">
    <dc:format>image/svg+xml</dc:format>
    <dc:type rdf:resource="http://purl.org/dc/dcmitype/StillImage"/>
   </cc:Work>
  </rdf:RDF>
 </metadata>
 <defs id="defs19">
  <filter id="filter1057" x="-.027" y="-.027" width="1.054" height="1.054" color-interpolation-filters="sRGB">
   <feGaussianBlur id="feGaussianBlur9" stdDeviation="0.61875"/>
  </filter>
  <linearGradient id="linearGradient983" x1="4.3595" x2="12.026" y1="4.2999" y2="11.966" gradientUnits="userSpaceOnUse">
   <stop id="stop977" stop-color="#171c54" offset="0"/>
   <stop id="stop979" stop-color="#2e3585" offset="1"/>
  </linearGradient>
 </defs>
 <rect id="rect21" transform="scale(.26458)" x="4.5" y="4.5" width="55" height="55" ry="15" fill="#141414" filter="url(#filter1057)" opacity=".3" stroke-linecap="round" stroke-width="2.7444"/>
 <rect id="rect23" x="1.1906" y="1.1906" width="14.552" height="14.552" ry="3.9687" fill="url(#linearGradient983)" stroke-linecap="round" stroke-width=".72611"/>
 <g id="text31974" transform="matrix(1.2383 0 0 1.2383 -1.2869 -2.4343)" fill="#d4da46" stroke-width=".26458" aria-label="GAP ">
  <path id="path2624" d="m5.3059 7.2321h1.0748v1.6123q-0.5016 0.16123-1.0928 0.16123-0.66282 0-1.0569-0.42994-0.39411-0.42994-0.39411-1.254 0-0.78822 0.41203-1.2182 0.42994-0.44785 1.1823-0.44785 0.5016 0 0.89571 0.17914l-0.16123 0.3762q-0.39411-0.19706-0.77031-0.19706-0.51951 0-0.82405 0.34037-0.30454 0.34037-0.30454 0.98528 0 0.64491 0.26871 0.98528 0.28663 0.32245 0.85988 0.32245 0.26871 0 0.57325-0.071656v-0.96736h-0.66282z"/>
  <path id="path2626" d="m9.0858 8.9697-0.35828-1.0211h-1.2182l-0.35828 1.0211h-0.42994l1.2002-3.2962h0.3762l1.2182 3.2962zm-0.48368-1.3794-0.34037-0.94945q-0.10748-0.30454-0.14331-0.51951-0.053742 0.2508-0.16123 0.51951l-0.32245 0.94945z"/>
  <path id="path2628" d="m10.376 7.6978v1.2719h-0.41203v-3.2783h0.80614q0.57325 0 0.85988 0.2508 0.28663 0.23288 0.28663 0.71657t-0.30454 0.77031q-0.30454 0.26871-0.89571 0.26871zm0-0.35828h0.28663q0.44785 0 0.627-0.16123 0.19706-0.16123 0.19706-0.5016 0-0.30454-0.19706-0.46577-0.17914-0.16123-0.55534-0.16123h-0.35828z"/>
 </g>
 <g id="text31974-2" transform="matrix(1.2383 0 0 1.2383 -1.7844 -2.8688)" fill="#d4da46" stroke-width=".26458" aria-label="4">
  <path id="path2637" d="m9.4697 12.831h-0.48368v0.73448h-0.39411v-0.73448h-1.5048v-0.35828l1.4869-2.2034h0.41203v2.1855h0.48368zm-0.87779-0.3762v-0.78822q0-0.39411 0.035828-0.96736h-0.017914q-0.089571 0.23288-0.19706 0.39411l-0.93154 1.3615z"/>
 </g>
 <g id="g2622" transform="matrix(1.2383 0 0 1.2383 17.413 -2.8688)" fill="#d4da46" font-family="sans-serif" font-size="10.583px" stroke-width=".26458">
  <text id="text2616" x="3.5502942" y="8.9697266" style="line-height:1.25" xml:space="preserve"><tspan id="tspan2614" x="3.5502942" y="8.9697266" fill="#d4da46" font-family="'TeX Gyre Bonum Math'" font-size="4.586px" stroke-width=".26458" style="font-variant-caps:normal;font-variant-east-asian:normal;font-variant-ligatures:normal;font-variant-numeric:normal">GAP </tspan></text>
  <text id="text2620" x="7.0333686" y="12.652628" style="line-height:1.25" xml:space="preserve"><tspan id="tspan2618" x="7.0333686" y="12.652628" fill="#d4da46" font-family="'TeX Gyre Bonum Math'" font-size="4.586px" stroke-width=".26458" style="font-variant-caps:normal;font-variant-east-asian:normal;font-variant-ligatures:normal;font-variant-numeric:normal">4</tspan></text>
 </g>
</svg>
